assets/images/about/history-1.svg

<svg width="62" height="89" viewBox="0 0 62 89" fill="none" xmlns="http://www.w3.org/2000/svg">
<path d="M60.5175 31.4062L54.1133 35.0846V88.5006L60.5175 84.8222V31.4062Z" fill="white"/>
<path d="M54.117 88.9802C54.037 88.9802 53.9569 88.9802 53.8769 88.9002C53.7168 88.8203 53.6367 88.6603 53.6367 88.5004V35.0844C53.6367 34.9245 53.7168 34.7646 53.8769 34.6846L60.2811 31.0063C60.4412 30.9263 60.6013 30.9263 60.7614 31.0063C60.9215 31.0862 61.0015 31.2462 61.0015 31.4061V84.8221C61.0015 84.982 60.9215 85.1419 60.7614 85.2219L54.3572 88.9002C54.2771 88.9802 54.1971 88.9802 54.117 88.9802ZM54.5973 35.4043V87.6208L59.9609 84.5022V32.2857L54.5973 35.4043Z" fill="#0000BD"/>
<path d="M6.88467 0.459961L0.480469 4.13831L54.1156 35.0844L60.5198 31.4061L6.88467 0.459961Z" fill="white"/>
<path d="M54.1155 35.564C54.0354 35.564 53.9554 35.564 53.8753 35.4841L0.240157 4.61792C0.0800525 4.53796 0 4.37803 0 4.13814C0 3.97821 0.0800525 3.81828 0.240157 3.73832L6.64436 0.059973C6.80446 -0.019991 6.96457 -0.019991 7.12467 0.059973L60.7598 31.0061C60.9199 31.086 61 31.246 61 31.4059C61 31.5658 60.9199 31.7257 60.7598 31.8057L54.3556 35.4841C54.2756 35.564 54.1955 35.564 54.1155 35.564ZM1.521 4.13814L54.1155 34.5245L59.479 31.4059L6.88451 1.09951L1.521 4.13814Z" fill="#0000BD"/>
<path d="M0.480469 4.13867L54.1156 35.0848V88.5008L0.480469 57.5547V4.13867Z" fill="white"/>
<path d="M54.1155 88.9804C54.0354 88.9804 53.9554 88.9804 53.8753 88.9004L0.240157 57.9543C0.0800525 57.8743 0 57.7144 0 57.5545V4.1385C0 3.97858 0.0800525 3.81865 0.240157 3.73868C0.400262 3.65872 0.560367 3.65872 0.720472 3.73868L54.3556 34.6848C54.5158 34.7647 54.5958 34.9247 54.5958 35.0846V88.5006C54.5958 88.6605 54.5158 88.8204 54.3556 88.9004C54.2756 88.9804 54.1955 88.9804 54.1155 88.9804ZM1.04068 57.2346L53.6352 87.621V35.4044L1.04068 5.01811V57.2346Z" fill="#0000BD"/>
<path d="M17.2915 67.2302L8.08545 61.8726V48.0388L17.2915 53.3164V67.2302Z" fill="white"/>
<path d="M17.2918 67.7101C17.2118 67.7101 17.1317 67.7101 17.0517 67.6301L7.84563 62.3525C7.68552 62.2725 7.60547 62.1126 7.60547 61.9526V48.0389C7.60547 47.879 7.68552 47.719 7.84563 47.6391C8.00573 47.5591 8.16584 47.5591 8.32594 47.6391L17.612 52.9167C17.7721 52.9967 17.8522 53.1566 17.8522 53.3165V67.2303C17.8522 67.3902 17.7721 67.5501 17.612 67.6301C17.532 67.7101 17.4519 67.7101 17.2918 67.7101ZM8.5661 61.6328L16.8115 66.3507V53.6364L8.5661 48.8385V61.6328Z" fill="black"/>
<path d="M31.9419 75.7064L22.6558 70.3489V52.197L31.9419 57.5546V75.7064Z" fill="white"/>
<path d="M31.9422 76.1863C31.8621 76.1863 31.7821 76.1863 31.702 76.1063L22.4159 70.7488C22.2558 70.6688 22.1758 70.5089 22.1758 70.3489V52.1971C22.1758 52.0372 22.2558 51.8772 22.4159 51.7973C22.576 51.7173 22.7361 51.7173 22.8963 51.7973L32.1823 57.1549C32.3425 57.2348 32.4225 57.3948 32.4225 57.5547V75.7065C32.4225 75.8664 32.3425 76.0264 32.1823 76.1063C32.1023 76.1863 32.0222 76.1863 31.9422 76.1863ZM23.2165 70.0291L31.4619 74.8269V57.7946L23.2165 52.9967V70.0291Z" fill="black"/>
<path d="M46.5903 84.1021L37.3042 78.7446V47.7185L46.5903 52.9961V84.1021Z" fill="white"/>
<path d="M46.5906 84.582C46.5106 84.582 46.4305 84.582 46.3505 84.502L37.0644 79.1445C36.9043 79.1445 36.8242 78.9046 36.8242 78.7446V47.7186C36.8242 47.5587 36.9043 47.3987 37.0644 47.3188C37.2245 47.2388 37.3846 47.2388 37.5447 47.3188L46.8308 52.6764C46.9909 52.7563 47.0709 52.9162 47.0709 53.0762V84.1822C47.0709 84.3421 46.9909 84.5021 46.8308 84.582C46.7507 84.582 46.6707 84.582 46.5906 84.582ZM37.7848 78.5047L46.0303 83.2226V53.3161L37.7848 48.5182V78.5047Z" fill="black"/>
<path d="M13.0469 55.7953L17.2897 53.3164V67.2302L13.0469 69.709V55.7953Z" fill="white"/>
<path d="M13.0506 70.1887C12.9706 70.1887 12.8905 70.1887 12.8105 70.1087C12.6504 70.0287 12.5703 69.8688 12.5703 69.7089V55.7951C12.5703 55.6352 12.6504 55.4753 12.8105 55.3953L17.0533 52.9164C17.2134 52.8365 17.3735 52.8365 17.5336 52.9164C17.6937 52.9964 17.7737 53.1563 17.7737 53.3162V67.23C17.7737 67.3899 17.6937 67.5498 17.5336 67.6298L13.2908 70.1087C13.2908 70.1887 13.1307 70.1887 13.0506 70.1887ZM13.611 56.115V68.8293L16.8931 66.9901V54.1958L13.611 56.115Z" fill="#DF0112"/>
<path d="M27.6992 59.9536L31.942 57.5547V75.7065L27.6992 78.1055V59.9536Z" fill="white"/>
<path d="M27.6991 78.6649C27.619 78.6649 27.539 78.6649 27.4589 78.585C27.2988 78.505 27.2188 78.3451 27.2188 78.1851V59.9533C27.2188 59.7934 27.2988 59.6335 27.4589 59.5535L31.7017 57.0746C31.8618 56.9947 32.0219 56.9947 32.182 57.0746C32.3421 57.1546 32.4222 57.3145 32.4222 57.4744V75.6263C32.4222 75.7862 32.3421 75.9461 32.182 76.0261L27.9392 78.505C27.8592 78.585 27.7791 78.6649 27.6991 78.6649ZM28.1794 60.2732V77.2256L31.3815 75.3864V58.434L28.1794 60.2732Z" fill="#DF0112"/>
<path d="M18.4102 54.6761L22.6529 52.1973L31.939 57.5549L27.6962 59.9538L18.4102 54.6761Z" fill="white"/>
<path d="M27.7 60.5134C27.6199 60.5134 27.5399 60.5134 27.4598 60.4334L18.1738 55.0758C18.0136 54.9958 17.9336 54.8359 17.9336 54.676C17.9336 54.5161 18.0136 54.3561 18.1738 54.2762L22.4165 51.7973C22.5766 51.7173 22.7367 51.7173 22.8968 51.7973L32.1829 57.1549C32.343 57.2348 32.4231 57.3948 32.4231 57.5547C32.4231 57.7146 32.343 57.8745 32.1829 57.9545L27.9402 60.4334C27.8601 60.4334 27.78 60.5134 27.7 60.5134ZM19.4546 54.676L27.7 59.3939L30.9822 57.5547L22.6567 52.7568L19.4546 54.676Z" fill="#DF0112"/>
<path d="M42.3477 55.476L46.5904 52.9971V84.1031L42.3477 86.582V55.476Z" fill="white"/>
<path d="M42.3475 87.0616C42.2675 87.0616 42.1874 87.0616 42.1073 86.9816C41.9472 86.9017 41.8672 86.7417 41.8672 86.5818V55.4758C41.8672 55.3159 41.9472 55.1559 42.1073 55.076L46.3501 52.5971C46.5102 52.5171 46.6703 52.5171 46.8304 52.5971C46.9906 52.677 47.0706 52.837 47.0706 52.9969V84.1029C47.0706 84.2628 46.9906 84.4228 46.8304 84.5027L42.5877 86.9816C42.5076 87.0616 42.4276 87.0616 42.3475 87.0616ZM42.8278 55.7956V85.7022L46.11 83.863V53.8765L42.8278 55.7956Z" fill="#DF0112"/>
<path d="M33.0625 50.1177L37.3053 47.7188L46.5914 52.9964L42.3486 55.4753L33.0625 50.1177Z" fill="white"/>
<path d="M42.3484 55.9549C42.2684 55.9549 42.1883 55.9549 42.1083 55.8749L32.8222 50.5973C32.6621 50.5173 32.582 50.3574 32.582 50.1975C32.582 50.0375 32.6621 49.8776 32.8222 49.7976L37.065 47.3188C37.2251 47.2388 37.3852 47.2388 37.5453 47.3188L46.8314 52.6764C46.9915 52.7563 47.0715 52.9162 47.0715 53.0762C47.0715 53.2361 46.9915 53.396 46.8314 53.476L42.5886 55.9549C42.5085 55.9549 42.4285 55.9549 42.3484 55.9549ZM34.023 50.1175L42.2684 54.8354L45.5505 52.9962L37.3051 48.2783L34.023 50.1175Z" fill="#DF0112"/>
<path d="M3.84375 50.438L8.08653 48.0391L17.2926 53.3167L13.0498 55.7956L3.84375 50.438Z" fill="white"/>
<path d="M13.0496 56.2752C12.9696 56.2752 12.8895 56.2752 12.8095 56.1952L3.60344 50.9176C3.44333 50.8376 3.36328 50.6777 3.36328 50.5178C3.36328 50.3579 3.44333 50.1979 3.60344 50.118L7.84622 47.6391C8.00633 47.5591 8.16643 47.5591 8.32654 47.6391L17.6126 52.9167C17.7727 52.9967 17.8528 53.1566 17.8528 53.3165C17.8528 53.4764 17.7727 53.6364 17.6126 53.7163L13.3698 56.1952C13.2898 56.2752 13.1297 56.2752 13.0496 56.2752ZM4.80423 50.4378L13.0496 55.1557L16.3318 53.3165L8.08638 48.5986L4.80423 50.4378Z" fill="#DF0112"/>
<path d="M13.0498 69.7088L3.84375 64.3512V50.4375L13.0498 55.7951V69.7088Z" fill="white"/>
<path d="M13.0496 70.1885C12.9696 70.1885 12.8895 70.1885 12.8095 70.1085L3.60344 64.8309C3.44333 64.7509 3.36328 64.591 3.36328 64.431V50.4373C3.36328 50.2774 3.44333 50.1175 3.60344 50.0375C3.76354 49.9575 3.92365 49.9575 4.08375 50.0375L13.3698 55.3951C13.5299 55.4751 13.61 55.635 13.61 55.7949V69.7087C13.61 69.8686 13.5299 70.0285 13.3698 70.1085C13.2898 70.1885 13.1297 70.1885 13.0496 70.1885ZM4.32391 64.0312L12.5693 68.7491V56.1148L4.32391 51.3169V64.0312Z" fill="#DF0112"/>
<path d="M27.6962 78.1053L18.4102 72.8276V54.6758L27.6962 59.9534V78.1053Z" fill="white"/>
<path d="M27.7 78.6648C27.6199 78.6648 27.5399 78.6648 27.4598 78.5849L18.1738 73.2273C18.0136 73.1473 17.9336 72.9874 17.9336 72.8274V54.6756C17.9336 54.5157 18.0136 54.3558 18.1738 54.2758C18.3339 54.1958 18.494 54.1958 18.6541 54.2758L27.9402 59.6334C28.1003 59.7133 28.1803 59.8733 28.1803 60.0332V78.185C28.1803 78.345 28.1003 78.5049 27.9402 78.5849C27.8601 78.5849 27.7801 78.6648 27.7 78.6648ZM18.9743 72.5076L27.2197 77.3054V60.2731L18.9743 55.4753V72.5076Z" fill="#DF0112"/>
<path d="M42.3486 86.5818L33.0625 81.2242V50.1182L42.3486 55.4758V86.5818Z" fill="white"/>
<path d="M42.3484 87.0614C42.2684 87.0614 42.1883 87.0614 42.1083 86.9814L32.8222 81.6238C32.6621 81.5439 32.582 81.3839 32.582 81.224V50.118C32.582 49.9581 32.6621 49.7981 32.8222 49.7182C32.9823 49.6382 33.1424 49.6382 33.3025 49.7182L42.5886 55.0758C42.7487 55.1557 42.8288 55.3157 42.8288 55.4756V86.5816C42.8288 86.7415 42.7487 86.9015 42.5886 86.9814C42.5085 87.0614 42.4285 87.0614 42.3484 87.0614ZM33.5427 80.9042L41.7881 85.702V55.7954L33.5427 50.9976V80.9042Z" fill="#DF0112"/>
</svg>

<svg width="62" height="89" fill="none" xmlns="http://www.w3.org/2000/svg"><path d="M60.517 31.406l-6.404 3.679V88.5l6.404-3.679V31.406z" fill="#fff"/><path d="M54.117 88.98c-.08 0-.16 0-.24-.08a.44.44 0 01-.24-.4V35.084c0-.16.08-.32.24-.4l6.404-3.678a.51.51 0 01.48 0c.16.08.24.24.24.4v53.416c0 .16-.08.32-.24.4L54.357 88.9c-.08.08-.16.08-.24.08zm.48-53.576v52.217l5.364-3.119V32.286l-5.364 3.118z" fill="#0000BD"/><path d="M6.885.46L.48 4.138l53.636 30.946 6.404-3.678L6.885.46z" fill="#fff"/><path d="M54.115 35.564c-.08 0-.16 0-.24-.08L.24 4.618c-.16-.08-.24-.24-.24-.48 0-.16.08-.32.24-.4L6.644.06a.51.51 0 01.48 0L60.76 31.006c.16.08.24.24.24.4 0 .16-.08.32-.24.4l-6.404 3.678c-.08.08-.16.08-.24.08zM1.521 4.138l52.594 30.387 5.364-3.12L6.885 1.1 1.52 4.138z" fill="#0000BD"/><path d="M.48 4.139l53.636 30.946V88.5L.48 57.555V4.139z" fill="#fff"/><path d="M54.115 88.98c-.08 0-.16 0-.24-.08L.24 57.954a.44.44 0 01-.24-.4V4.139c0-.16.08-.32.24-.4a.51.51 0 01.48 0l53.636 30.947c.16.08.24.24.24.4V88.5c0 .16-.08.32-.24.4-.08.08-.16.08-.24.08zM1.041 57.235L53.635 87.62V35.404L1.041 5.018v52.217z" fill="#0000BD"/><path d="M17.291 67.23l-9.206-5.357V48.039l9.206 5.277V67.23z" fill="#fff"/><path d="M17.292 67.71c-.08 0-.16 0-.24-.08l-9.206-5.277a.44.44 0 01-.24-.4V48.039c0-.16.08-.32.24-.4a.51.51 0 01.48 0l9.286 5.278c.16.08.24.24.24.4V67.23c0 .16-.08.32-.24.4-.08.08-.16.08-.32.08zm-8.726-6.077l8.245 4.718V53.636L8.566 48.84v12.794z" fill="#000"/><path d="M31.942 75.706l-9.286-5.357V52.197l9.286 5.358v18.151z" fill="#fff"/><path d="M31.942 76.186c-.08 0-.16 0-.24-.08l-9.286-5.357a.44.44 0 01-.24-.4V52.197c0-.16.08-.32.24-.4a.51.51 0 01.48 0l9.286 5.358c.16.08.24.24.24.4v18.152c0 .16-.08.32-.24.4-.08.08-.16.08-.24.08zm-8.726-6.157l8.246 4.798V57.795l-8.245-4.798v17.032z" fill="#000"/><path d="M46.59 84.102l-9.286-5.357V47.718l9.286 5.278v31.106z" fill="#fff"/><path d="M46.59 84.582c-.08 0-.16 0-.24-.08l-9.286-5.358c-.16 0-.24-.24-.24-.4V47.72c0-.16.08-.32.24-.4a.51.51 0 01.48 0l9.287 5.357c.16.08.24.24.24.4v31.106c0 .16-.08.32-.24.4h-.24zm-8.805-6.077l8.245 4.718V53.316l-8.245-4.798v29.987z" fill="#000"/><path d="M13.047 55.795l4.243-2.479V67.23l-4.243 2.479V55.795z" fill="#fff"/><path d="M13.05 70.189c-.08 0-.16 0-.24-.08a.44.44 0 01-.24-.4V55.795c0-.16.08-.32.24-.4l4.243-2.479a.51.51 0 01.48 0c.16.08.24.24.24.4V67.23c0 .16-.08.32-.24.4l-4.242 2.479c0 .08-.16.08-.24.08zm.561-14.074v12.714l3.282-1.839V54.196l-3.282 1.919z" fill="#DF0112"/><path d="M27.7 59.954l4.242-2.4v18.153l-4.243 2.399V59.954z" fill="#fff"/><path d="M27.7 78.665c-.081 0-.161 0-.241-.08a.44.44 0 01-.24-.4V59.953c0-.16.08-.32.24-.4l4.243-2.478a.51.51 0 01.48 0c.16.08.24.24.24.4v18.151c0 .16-.08.32-.24.4l-4.243 2.479c-.08.08-.16.16-.24.16zm.48-18.392v16.953l3.201-1.84V58.434l-3.202 1.84z" fill="#DF0112"/><path d="M18.41 54.676l4.243-2.479 9.286 5.358-4.243 2.399-9.286-5.278z" fill="#fff"/><path d="M27.7 60.513c-.08 0-.16 0-.24-.08l-9.286-5.357a.44.44 0 01-.24-.4c0-.16.08-.32.24-.4l4.242-2.479a.51.51 0 01.48 0l9.287 5.358c.16.08.24.24.24.4 0 .16-.08.32-.24.4l-4.243 2.478c-.08 0-.16.08-.24.08zm-8.245-5.837l8.245 4.718 3.282-1.84-8.325-4.797-3.202 1.919z" fill="#DF0112"/><path d="M42.348 55.476l4.242-2.479v31.106l-4.242 2.479V55.476z" fill="#fff"/><path d="M42.347 87.062c-.08 0-.16 0-.24-.08a.44.44 0 01-.24-.4V55.476c0-.16.08-.32.24-.4l4.243-2.479a.51.51 0 01.48 0c.16.08.24.24.24.4v31.106c0 .16-.08.32-.24.4l-4.242 2.479c-.08.08-.16.08-.24.08zm.48-31.266v29.906l3.283-1.839V53.877l-3.282 1.919z" fill="#DF0112"/><path d="M33.063 50.118l4.242-2.4 9.286 5.278-4.242 2.48-9.286-5.358z" fill="#fff"/><path d="M42.348 55.955c-.08 0-.16 0-.24-.08l-9.286-5.278a.44.44 0 01-.24-.4c0-.16.08-.32.24-.4l4.243-2.478a.51.51 0 01.48 0l9.286 5.357c.16.08.24.24.24.4 0 .16-.08.32-.24.4l-4.242 2.479h-.24zm-8.325-5.837l8.245 4.717 3.282-1.839-8.245-4.718-3.282 1.84z" fill="#DF0112"/><path d="M3.844 50.438l4.243-2.399 9.206 5.278-4.243 2.479-9.206-5.358z" fill="#fff"/><path d="M13.05 56.275c-.08 0-.16 0-.24-.08l-9.207-5.277a.44.44 0 01-.24-.4c0-.16.08-.32.24-.4l4.243-2.479a.51.51 0 01.48 0l9.287 5.278c.16.08.24.24.24.4 0 .16-.08.32-.24.4l-4.243 2.478c-.08.08-.24.08-.32.08zm-8.246-5.837l8.246 4.718 3.282-1.84L8.086 48.6l-3.282 1.839z" fill="#DF0112"/><path d="M13.05 69.709L3.844 64.35V50.438l9.206 5.357V69.71z" fill="#fff"/><path d="M13.05 70.189c-.08 0-.16 0-.24-.08L3.602 64.83a.44.44 0 01-.24-.4V50.437c0-.16.08-.32.24-.4a.51.51 0 01.48 0l9.287 5.358c.16.08.24.24.24.4v13.914c0 .16-.08.32-.24.4-.08.08-.24.08-.32.08zM4.324 64.03l8.245 4.718V56.115l-8.245-4.798V64.03z" fill="#DF0112"/><path d="M27.696 78.105l-9.286-5.277V54.676l9.286 5.277v18.152z" fill="#fff"/><path d="M27.7 78.665c-.08 0-.16 0-.24-.08l-9.286-5.358a.44.44 0 01-.24-.4V54.676c0-.16.08-.32.24-.4a.51.51 0 01.48 0l9.286 5.357c.16.08.24.24.24.4v18.152c0 .16-.08.32-.24.4-.08 0-.16.08-.24.08zm-8.726-6.157l8.246 4.797V60.273l-8.246-4.798v17.033z" fill="#DF0112"/><path d="M42.349 86.582l-9.286-5.358V50.118l9.286 5.358v31.106z" fill="#fff"/><path d="M42.348 87.061c-.08 0-.16 0-.24-.08l-9.286-5.357a.44.44 0 01-.24-.4V50.118c0-.16.08-.32.24-.4a.51.51 0 01.48 0l9.287 5.358c.16.08.24.24.24.4v31.106c0 .16-.08.32-.24.4-.08.08-.16.08-.24.08zm-8.805-6.157l8.245 4.798V55.795l-8.245-4.797v29.906z" fill="#DF0112"/></svg>
